resources/icons/20px/endnote.svg

<svg width="20" height="20" viewBox="0 0 20 20" fill="none" xmlns="http://www.w3.org/2000/svg">
<path d="M16.9428 1.57143C16.6375 1.62857 16.3232 1.65714 16 1.65714V2.94286H18.3165V10H20V0H18.7475C18.6936 0.304762 18.5769 0.561905 18.3973 0.771429C18.2267 0.980953 18.0157 1.15238 17.7643 1.28571C17.5219 1.41905 17.248 1.51429 16.9428 1.57143Z" fill="#5F6B7C"/>
<path fill-rule="evenodd" clip-rule="evenodd" d="M12.8333 20C12.4253 20 12.0113 19.9034 11.5913 19.7103C11.5309 19.68 11.4753 19.6528 11.4232 19.6273C11.1227 19.4805 10.9361 19.3893 10.6193 19.0706V19.7827H8.54925V7H10.6193V10.2953L10.5653 11.7799C10.9373 11.454 11.3393 11.1885 11.7713 10.9833C12.2153 10.7781 12.6653 10.6755 13.1213 10.6755C13.6733 10.6755 14.1653 10.7841 14.5973 11.0014C15.0293 11.2066 15.3953 11.5084 15.6953 11.9067C15.9953 12.2929 16.2233 12.7637 16.3792 13.3189C16.5353 13.8742 16.6133 14.4958 16.6133 15.1838C16.6133 15.9443 16.5053 16.6263 16.2892 17.2298C16.0853 17.8213 15.8093 18.3222 15.4613 18.7326C15.1133 19.143 14.7113 19.4568 14.2553 19.6741C13.7993 19.8914 13.3253 20 12.8333 20ZM12.4013 18.2799C12.9893 18.2799 13.4813 18.0265 13.8773 17.5195C14.2733 17.0005 14.4713 16.234 14.4713 15.2201C14.4713 14.3268 14.3213 13.6328 14.0213 13.1379C13.7213 12.643 13.2353 12.3955 12.5633 12.3955C11.9393 12.3955 11.2913 12.7275 10.6193 13.3914V17.5376C10.9313 17.8152 11.2373 18.0084 11.5373 18.117C11.8493 18.2256 12.1373 18.2799 12.4013 18.2799Z" fill="#5F6B7C"/>
<path fill-rule="evenodd" clip-rule="evenodd" d="M2.61 19.9998C1.83 19.9998 1.2 19.7644 0.72 19.2937C0.24 18.8109 0 18.1772 0 17.3926C0 16.9218 0.0960001 16.5054 0.288 16.1433C0.492 15.7691 0.804 15.4492 1.224 15.1837C1.656 14.9181 2.196 14.6948 2.844 14.5137C3.504 14.3327 4.29 14.1939 5.202 14.0973C5.19 13.868 5.154 13.6507 5.094 13.4455C5.046 13.2282 4.956 13.0411 4.824 12.8842C4.704 12.7152 4.542 12.5885 4.338 12.504C4.134 12.4074 3.882 12.3591 3.582 12.3591C3.15 12.3591 2.724 12.4436 2.304 12.6126C1.896 12.7816 1.494 12.9868 1.098 13.2282L0.342 11.8341C0.834 11.5202 1.386 11.2486 1.998 11.0193C2.61 10.79 3.27 10.6753 3.978 10.6753C5.082 10.6753 5.904 11.0072 6.444 11.6711C6.996 12.3229 7.272 13.2705 7.272 14.5137V19.7825H5.202V18.9115C4.806 19.2494 4.524 19.4265 4.068 19.6558C3.624 19.8851 3.138 19.9998 2.61 19.9998ZM3.276 18.3703C3.636 18.3703 3.96 18.2858 4.248 18.1168C4.548 17.9478 4.866 17.7064 5.202 17.3926V15.4009C4.602 15.4733 4.098 15.5699 3.69 15.6906C3.282 15.8113 2.952 15.9501 2.7 16.107C2.448 16.2519 2.268 16.4209 2.16 16.614C2.052 16.8071 1.998 17.0123 1.998 17.2296C1.998 17.6279 2.118 17.9176 2.358 18.0987C2.598 18.2798 2.904 18.3703 3.276 18.3703Z" fill="#5F6B7C"/>
<clipPath id="clip0_3754_13">
<rect width="20" height="20" fill="white"/>
</clipPath>
</svg>

<svg xmlns="http://www.w3.org/2000/svg" viewBox="0 0 20 20">
  <path d="M16.943 1.571q-.459.087-.943.086v1.286h2.317V10H20V0h-1.253q-.08.458-.35.771-.255.315-.633.515a2.7 2.7 0 0 1-.821.285M12.833 20q-.612 0-1.242-.29l-.168-.083c-.3-.146-.487-.238-.804-.556v.712H8.55V7h2.07v3.295l-.054 1.485a5.2 5.2 0 0 1 1.206-.797 3.2 3.2 0 0 1 1.35-.308q.828.001 1.476.326.648.308 1.098.906.45.58.684 1.412.234.833.234 1.865 0 1.14-.324 2.046a4.6 4.6 0 0 1-.828 1.503q-.522.615-1.206.941T12.833 20m-.432-1.72q.882 0 1.476-.76.594-.78.594-2.3 0-1.34-.45-2.082t-1.458-.742q-.936 0-1.944.995v4.147q.468.416.918.579.468.163.864.163M2.61 20q-1.17 0-1.89-.706Q0 18.569 0 17.393q0-.707.288-1.25.306-.561.936-.96.648-.397 1.62-.67.99-.271 2.358-.416a2.9 2.9 0 0 0-.108-.652 1.3 1.3 0 0 0-.27-.56 1.1 1.1 0 0 0-.486-.381 1.8 1.8 0 0 0-.756-.145q-.648 0-1.278.254a9 9 0 0 0-1.206.615l-.756-1.394a9 9 0 0 1 1.656-.815 5.6 5.6 0 0 1 1.98-.344q1.656 0 2.466.996.828.978.828 2.843v5.268h-2.07v-.87a5 5 0 0 1-1.134.744A3.1 3.1 0 0 1 2.61 20m.666-1.63q.54 0 .972-.253.45-.254.954-.724V15.4q-.9.108-1.512.29-.612.181-.99.416-.378.218-.54.507a1.24 1.24 0 0 0-.162.616q0 .597.36.869.36.27.918.271"/>
</svg>
